storage/app/icons/phosphoricons/regular/computer-tower.svg

<svg xmlns="http://www.w3.org/2000/svg" fill="currentColor" viewBox="0 0 256 256"><path d="M88 72a8 8 0 0 1 8-8h64a8 8 0 0 1 0 16H96a8 8 0 0 1-8-8m8 40h64a8 8 0 0 0 0-16H96a8 8 0 0 0 0 16m112-72v176a16 16 0 0 1-16 16H64a16 16 0 0 1-16-16V40a16 16 0 0 1 16-16h128a16 16 0 0 1 16 16m-16 0H64v176h128Zm-64 128a12 12 0 1 0 12 12 12 12 0 0 0-12-12"/></svg>

<svg xmlns="http://www.w3.org/2000/svg" viewBox="0 0 256 256" fill="currentColor"><path d="M88,72a8,8,0,0,1,8-8h64a8,8,0,0,1,0,16H96A8,8,0,0,1,88,72Zm8,40h64a8,8,0,0,0,0-16H96a8,8,0,0,0,0,16ZM208,40V216a16,16,0,0,1-16,16H64a16,16,0,0,1-16-16V40A16,16,0,0,1,64,24H192A16,16,0,0,1,208,40Zm-16,0H64V216H192ZM128,168a12,12,0,1,0,12,12A12,12,0,0,0,128,168Z"/></svg>
